!!!OTL: IN DIESER WOELBUNG DES BUSENS
!!!ARE: Europa, Mitteleuropa, Deutschland
!!!SCT: F0316
!!!YEM: Copyright 1995, estate of Helmut Schaffrath.
**kern
*ICvox
*Ivox
*M6/8
*k[f#c#g#d#]
*E:
{8g#
=1
4b
8g#
8e
8e
8e
=2
8.f#
16e
8f#
4g#}
{8g#
=3
8cc#
8g#
8g#
8.ee
16dd#
8cc#
=4
4.b
4g#}
{8g#
=5
8B
8B
8B
8.B
16g#
8e
=6
8e
8e
8e
4cc#}
{8ee
=7
8.b
16a
8g#
8f#
8f#
8b
=8
4.g#
4e}
==
!!!AGN: Jugend - Lied, Belehrung, Moral
!!!ONB: ESAC (Essen Associative Code) Database: FINK
!!!AMT: compound duple
!!!AIN: vox
!!!EED: Helmut Schaffrath
!!!EEV: 1.0
*-
